outputs/icons/social/linkedin_sharp.svg

<svg xmlns="http://www.w3.org/2000/svg" width="1200" height="1200" fill="none"><g clip-path="url(#a)"><path fill="#000" d="M952.04 952.065H803.88V720.02c0-55.335-.995-126.565-77.07-126.565-77.17 0-88.985 60.295-88.985 122.54v236.05H489.663v-477.18H631.91v65.215h1.95a155.9 155.9 0 0 1 59.515-57.929 155.9 155.9 0 0 1 80.815-19.141c150.175 0 177.87 98.77 177.87 227.28zM322.478 409.651a85.93 85.93 0 0 1-79.394-53.05 85.93 85.93 0 0 1 18.628-93.653 85.93 85.93 0 0 1 93.653-18.629 85.95 85.95 0 0 1 38.567 31.651 85.937 85.937 0 0 1-71.454 133.681m74.081 542.414H248.241v-477.2h148.318zm629.346-852.059H173.788A72.99 72.99 0 0 0 100 172.095v855.73a73.026 73.026 0 0 0 73.788 72.17h852.117a73.2 73.2 0 0 0 51.975-20.755 73.2 73.2 0 0 0 22.11-51.415v-855.73a73.147 73.147 0 0 0-74.085-72.089"/></g><defs><clipPath id="a"><path fill="#fff" d="M0 0h1200v1200H0z"/></clipPath></defs></svg>

<svg width="1200" height="1200" viewBox="0 0 1200 1200" fill="none" xmlns="http://www.w3.org/2000/svg"><g clip-path="url(#clip0_788_2037)"><path d="M952.04 952.065H803.88V720.02C803.88 664.685 802.885 593.455 726.81 593.455C649.64 593.455 637.825 653.75 637.825 715.995V952.045H489.663V474.865H631.91V540.08H633.86C648.095 515.745 668.665 495.723 693.375 482.151C718.09 468.579 746.02 461.965 774.19 463.01C924.365 463.01 952.06 561.78 952.06 690.29L952.04 952.065ZM322.478 409.651C305.481 409.651 288.867 404.611 274.735 395.168C260.602 385.725 249.587 372.303 243.084 356.601C236.579 340.898 234.877 323.619 238.193 306.949C241.509 290.279 249.694 274.966 261.712 262.948C273.73 250.929 289.043 242.745 305.713 239.429C322.383 236.113 339.662 237.815 355.365 244.319C371.067 250.824 384.489 261.839 393.932 275.97C403.374 290.103 408.415 306.718 408.415 323.714C408.415 346.506 399.361 368.364 383.244 384.481C367.128 400.597 345.27 409.651 322.478 409.651ZM396.559 952.065H248.241V474.865H396.559V952.065ZM1025.905 100.006H173.788C154.447 99.792 135.812 107.265 121.977 120.782C108.142 134.299 100.237 152.755 100 172.095V1027.825C100.227 1047.18 108.126 1065.65 121.961 1079.18C135.797 1092.71 154.437 1100.2 173.788 1099.995H1025.905C1045.295 1100.235 1063.99 1092.77 1077.88 1079.24C1091.77 1065.705 1099.72 1047.215 1099.99 1027.825V172.095C1099.71 152.716 1091.755 134.239 1077.865 120.724C1063.975 107.207 1045.285 99.755 1025.905 100.006Z" fill="black"/></g><defs><clipPath id="clip0_788_2037"><path width="24" fill="white" d="M0 0H1200V1200H0V0z"/></clipPath></defs></svg>
